X: 29194
T: New Copperplate, The
R: reel
M: 4/4
K: Cmajor
|:~c3B c2AB|cAGF ECCE|Dddc dcAc|dcAG FDDB|
~c3B c2AB|cAGF ECCE|DEFG ABcA|1 dcAG FDDB:|2 dcAG FDDf||
|:ecgc acgc|ecgc ecce|fdad bdad|fdad fddf|
ecgc acgc|ecgc eccg|afge fde^c|1 dcAG FDDf:|2 dcAG FDDB||

